packages/dnb-ui-lib/assets/icons/bsu.svg

<svg width="16" height="16" viewBox="0 0 16 16" fill="none" xmlns="http://www.w3.org/2000/svg">
<path d="M3.61667 12.25C3.61667 11.8358 3.28088 11.5 2.86667 11.5C2.45245 11.5 2.11667 11.8358 2.11667 12.25H3.61667ZM13.8833 12.25C13.8833 11.8358 13.5475 11.5 13.1333 11.5C12.7191 11.5 12.3833 11.8358 12.3833 12.25H13.8833ZM0.46967 9.49186C0.176777 9.78475 0.176777 10.2596 0.46967 10.5525C0.762563 10.8454 1.23744 10.8454 1.53033 10.5525L0.46967 9.49186ZM5.19561 6.88724C5.4885 6.59435 5.4885 6.11947 5.19561 5.82658C4.90271 5.53369 4.42784 5.53369 4.13495 5.82658L5.19561 6.88724ZM14.4697 10.5525C14.7626 10.8454 15.2374 10.8454 15.5303 10.5525C15.8232 10.2596 15.8232 9.78475 15.5303 9.49185L14.4697 10.5525ZM11.2667 6.28885H10.5167C10.5167 6.48777 10.5957 6.67853 10.7363 6.81918L11.2667 6.28885ZM11.2667 3.88885V3.13885C10.8525 3.13885 10.5167 3.47464 10.5167 3.88885H11.2667ZM13.1333 3.88885H13.8833C13.8833 3.47464 13.5475 3.13885 13.1333 3.13885V3.88885ZM2.11667 12.25V13.9111H3.61667V12.25H2.11667ZM13.8833 13.9111V12.25H12.3833V13.9111H13.8833ZM1.53033 10.5525L5.19561 6.88724L4.13495 5.82658L0.46967 9.49186L1.53033 10.5525ZM12.0167 6.28885V3.88885H10.5167V6.28885H12.0167ZM11.2667 4.63885H13.1333V3.13885H11.2667V4.63885ZM8.23889 4.11111C8.23889 4.89923 8.10974 5.5782 7.92804 6.03246C7.83636 6.26166 7.74595 6.39682 7.68392 6.4624C7.62339 6.52641 7.64359 6.47222 7.74444 6.47222V7.97222C8.18894 7.97222 8.53652 7.74392 8.77375 7.49307C9.00949 7.24379 9.18724 6.92334 9.32076 6.58954C9.58946 5.91779 9.73889 5.04121 9.73889 4.11111H8.23889ZM7.74444 6.47222C7.8453 6.47222 7.8655 6.52641 7.80497 6.4624C7.74294 6.39682 7.65253 6.26166 7.56085 6.03246C7.37915 5.5782 7.25 4.89923 7.25 4.11111H5.75C5.75 5.04121 5.89943 5.91779 6.16813 6.58954C6.30165 6.92334 6.47939 7.24379 6.71513 7.49307C6.95237 7.74392 7.29995 7.97222 7.74444 7.97222V6.47222ZM7.25 4.11111C7.25 3.32299 7.37915 2.64402 7.56085 2.18977C7.65253 1.96056 7.74294 1.8254 7.80497 1.75982C7.8655 1.69581 7.8453 1.75 7.74444 1.75V0.25C7.29995 0.25 6.95237 0.478297 6.71513 0.729156C6.47939 0.97843 6.30165 1.29889 6.16813 1.63268C5.89943 2.30443 5.75 3.18101 5.75 4.11111H7.25ZM7.74444 1.75C7.64359 1.75 7.62339 1.69581 7.68392 1.75982C7.74595 1.8254 7.83636 1.96056 7.92804 2.18977C8.10974 2.64402 8.23889 3.32299 8.23889 4.11111H9.73889C9.73889 3.18101 9.58946 2.30443 9.32076 1.63268C9.18724 1.29889 9.00949 0.97843 8.77375 0.729156C8.53652 0.478297 8.18894 0.25 7.74444 0.25V1.75ZM3.8 15.5944H12.2V14.0944H3.8V15.5944ZM2.11667 13.9111C2.11667 14.8336 2.87743 15.5944 3.8 15.5944V14.0944C3.75831 14.0944 3.71207 14.0771 3.67303 14.038C3.63399 13.999 3.61667 13.9528 3.61667 13.9111H2.11667ZM12.2 15.5944C13.1226 15.5944 13.8833 14.8336 13.8833 13.9111H12.3833C12.3833 13.9528 12.366 13.999 12.327 14.038C12.2879 14.0771 12.2417 14.0944 12.2 14.0944V15.5944ZM10.7363 6.81918L12.603 8.68585L13.6637 7.62519L11.797 5.75852L10.7363 6.81918ZM12.603 8.68585L14.4697 10.5525L15.5303 9.49185L13.6637 7.62519L12.603 8.68585ZM12.3833 3.88885V8.15552H13.8833V3.88885H12.3833Z" fill="black"/>
</svg>

<svg width="16" height="16" viewBox="0 0 16 16" fill="none" xmlns="http://www.w3.org/2000/svg"><path d="M3.617 12.25a.75.75 0 00-1.5 0h1.5zm10.266 0a.75.75 0 00-1.5 0h1.5zM.47 9.492a.75.75 0 101.06 1.06L.47 9.492zm4.726-2.605a.75.75 0 00-1.061-1.06l1.06 1.06zm9.274 3.666a.75.75 0 101.06-1.061l-1.06 1.06zm-3.203-4.264h-.75c0 .199.079.39.22.53l.53-.53zm0-2.4v-.75a.75.75 0 00-.75.75h.75zm1.866 0h.75a.75.75 0 00-.75-.75v.75zM2.117 12.25v1.661h1.5V12.25h-1.5zm11.766 1.661V12.25h-1.5v1.661h1.5zM1.53 10.553l3.666-3.666-1.061-1.06L.47 9.492l1.06 1.06zm10.487-4.264v-2.4h-1.5v2.4h1.5zm-.75-1.65h1.866v-1.5h-1.866v1.5zM8.239 4.11c0 .788-.13 1.467-.311 1.921-.092.23-.182.365-.244.43-.06.064-.04.01.06.01v1.5c.445 0 .793-.228 1.03-.479.235-.25.413-.57.547-.903.268-.672.418-1.549.418-2.479h-1.5zm-.495 2.361c.101 0 .122.054.061-.01a1.409 1.409 0 01-.244-.43c-.182-.454-.311-1.133-.311-1.92h-1.5c0 .93.15 1.806.418 2.478.134.333.311.654.547.903.237.25.585.48 1.03.48v-1.5zm-.494-2.36c0-.789.13-1.468.31-1.922.093-.23.183-.365.245-.43.06-.064.04-.01-.06-.01V.25c-.445 0-.793.228-1.03.48-.236.248-.413.569-.547.903C5.9 2.304 5.75 3.18 5.75 4.11h1.5zm.494-2.362c-.1 0-.12-.054-.06.01.062.065.152.2.244.43.182.454.31 1.133.31 1.921h1.5c0-.93-.149-1.807-.417-2.478-.134-.334-.312-.655-.547-.904C8.537.48 8.189.25 7.744.25v1.5zM3.8 15.594h8.4v-1.5H3.8v1.5zm-1.683-1.683c0 .923.76 1.683 1.683 1.683v-1.5a.18.18 0 01-.127-.056.18.18 0 01-.056-.127h-1.5zM12.2 15.594c.923 0 1.683-.76 1.683-1.683h-1.5a.18.18 0 01-.056.127.181.181 0 01-.127.056v1.5zM10.736 6.82l1.867 1.867 1.06-1.06-1.866-1.867-1.06 1.06zm1.867 1.867l1.867 1.867 1.06-1.061-1.866-1.867-1.061 1.06zm-.22-4.797v4.267h1.5V3.889h-1.5z" fill="#000"/></svg>
